source/img/icon-feature-gift.svg

<?xml version="1.0" encoding="utf-8"?>
<!-- Generator: Adobe Illustrator 21.1.0, SVG Export Plug-In . SVG Version: 6.00 Build 0)  -->
<svg version="1.1" id="Layer_1" xmlns="http://www.w3.org/2000/svg" xmlns:xlink="http://www.w3.org/1999/xlink" x="0px" y="0px"
	 viewBox="0 0 32.6660004 32.4860001" style="enable-background:new 0 0 32.6660004 32.4860001;" xml:space="preserve">
<style type="text/css">
	.st0{fill:#63D1BB;}
</style>
<path class="st0" d="M2.8950043,32.4859924h12.5039978V18.5759907H2.8950043V32.4859924z M31.0770111,8.865983h-7.3349915
	c0.5209961-0.2669983,0.9840088-0.548996,1.3959961-0.8450012c1.5880127-1.1329951,2.4240112-2.5700068,2.4200134-3.9989924
	c0.0020142-1.1690066-0.5559998-2.2019961-1.3590088-2.9010012c-0.8049927-0.7039948-1.868988-1.1190033-3.0159912-1.1210022
	c-1.2200012-0.0010071-2.3519897,0.4210052-3.3200073,1.0690002c-1.4590149,0.9790039-2.6059875,2.451004-3.4240112,4.0670013
	c-0.0390015,0.0789948-0.0780029,0.1569977-0.1150055,0.2359924c-0.298996-0.6230011-0.6470032-1.2259979-1.0410004-1.7920077
	c-0.6909943-0.9850006-1.522995-1.8600006-2.496994-2.5110016c-0.9700012-0.6459961-2.1029968-1.0690002-3.3220062-1.0690002
	c-1.2129974,0.0039978-2.322998,0.5140076-3.1549988,1.2949982C5.4810028,2.0779736,4.8990021,3.1799634,4.8970032,4.4299636
	C4.8950043,5.1599593,5.1080017,5.9239669,5.5460052,6.6179671c0.552002,0.871994,1.423996,1.6280055,2.6329956,2.2480006H1.5910034
	C0.7129974,8.8659678,0,9.5779734,0,10.4559641v5.8970041h15.3959961V8.8649607h1.8730011v7.4880075h15.3959961v-5.8970041
	C32.6680145,9.5769815,31.9560089,8.865983,31.0770111,8.865983 M8.7150116,6.526979
	c-0.621994-0.3910065-1-0.7850037-1.2200012-1.1349945C7.2750092,5.0379806,7.201004,4.7299819,7.1990051,4.428987
	C7.1950073,3.924989,7.4470062,3.3869793,7.8899994,2.9679883C8.3269958,2.552995,8.9179993,2.3009808,9.4519958,2.3009808
	h0.0130005c0.6849976,0,1.3659973,0.2310028,2.0460052,0.6829987c1.0180054,0.6710052,1.9750061,1.8500063,2.6450043,3.1869967
	c0.3419952,0.6759949,0.6089935,1.3899994,0.7890015,2.0870051C11.8630066,7.9369826,9.8670044,7.2559829,8.7150116,6.526979
	 M19.2519989,4.8999801c0.5570068-0.7969971,1.2099915-1.4660037,1.8869934-1.9160006
	c0.6799927-0.451004,1.3619995-0.6829987,2.0469971-0.6829987h0.006012c0.5740051,0,1.1170044,0.2200012,1.493988,0.5500031
	c0.3770142,0.3359985,0.5710144,0.7389984,0.572998,1.1710055c-0.0039978,0.5119934-0.2720032,1.2590027-1.4670105,2.1320038
	c-1.1380005,0.8249969-3.1010132,1.6730042-6.1270142,2.2649989C17.9550018,7.2169814,18.5120087,5.9469771,19.2519989,4.8999801
	 M17.2720184,32.4859924h12.506012V18.5759907h-12.506012V32.4859924z"/>
</svg>

<svg xmlns="http://www.w3.org/2000/svg" viewBox="0 0 32.666 32.486"><path d="M2.895 32.486h12.504v-13.91H2.895v13.91zm28.182-23.62h-7.335c.521-.267.984-.549 1.396-.845 1.588-1.133 2.424-2.57 2.42-3.999.002-1.169-.556-2.202-1.359-2.901A4.585 4.585 0 0 0 23.183 0c-1.22-.001-2.352.421-3.32 1.069-1.459.979-2.606 2.451-3.424 4.067-.039.079-.078.157-.115.236a12.945 12.945 0 0 0-1.041-1.792c-.691-.985-1.523-1.86-2.497-2.511C11.816.423 10.683 0 9.464 0 8.251.004 7.141.514 6.309 1.295c-.828.783-1.41 1.885-1.412 3.135-.002.73.211 1.494.649 2.188.552.872 1.424 1.628 2.633 2.248H1.591C.713 8.866 0 9.578 0 10.456v5.897h15.396V8.865h1.873v7.488h15.396v-5.897a1.585 1.585 0 0 0-1.588-1.59M8.715 6.527c-.622-.391-1-.785-1.22-1.135-.22-.354-.294-.662-.296-.963-.004-.504.248-1.042.691-1.461.437-.415 1.028-.667 1.562-.667h.013c.685 0 1.366.231 2.046.683 1.018.671 1.975 1.85 2.645 3.187.342.676.609 1.39.789 2.087-3.082-.321-5.078-1.002-6.23-1.731M19.252 4.9c.557-.797 1.21-1.466 1.887-1.916.68-.451 1.362-.683 2.047-.683h.006c.574 0 1.117.22 1.494.55.377.336.571.739.573 1.171-.004.512-.272 1.259-1.467 2.132-1.138.825-3.101 1.673-6.127 2.265A10.57 10.57 0 0 1 19.252 4.9m-1.98 27.586h12.506v-13.91H17.272v13.91z" fill="#63d1bb"/></svg>
